src/svg/area/area-catolico.svg

<?xml version="1.0" encoding="UTF-8" standalone="no"?>
<!-- Generado por Andres Lacquaniti  -->

<svg
   xmlns:dc="http://purl.org/dc/elements/1.1/"
   xmlns:cc="http://creativecommons.org/ns#"
   xmlns:rdf="http://www.w3.org/1999/02/22-rdf-syntax-ns#"
   xmlns:svg="http://www.w3.org/2000/svg"
   xmlns="http://www.w3.org/2000/svg"
   xmlns:sodipodi="http://sodipodi.sourceforge.net/DTD/sodipodi-0.dtd"
   xmlns:inkscape="http://www.inkscape.org/namespaces/inkscape"
   version="1.1"
   id="Layer_1"
   x="0px"
   y="0px"
   width="15px"
   height="15px"
   viewBox="0 0 15 15"
   style="enable-background:new 0 0 15 15;"
   xml:space="preserve"
   sodipodi:docname="area-catolico.svg"
   inkscape:version="0.92.0 r15299"><metadata
     id="metadata9"><rdf:RDF><cc:Work
         rdf:about=""><dc:format>image/svg+xml</dc:format><dc:type
           rdf:resource="http://purl.org/dc/dcmitype/StillImage" /><dc:title></dc:title></cc:Work></rdf:RDF></metadata><defs
     id="defs7" /><sodipodi:namedview
     pagecolor="#ffffff"
     bordercolor="#666666"
     borderopacity="1"
     objecttolerance="10"
     gridtolerance="10"
     guidetolerance="10"
     inkscape:pageopacity="0"
     inkscape:pageshadow="2"
     inkscape:window-width="1920"
     inkscape:window-height="996"
     id="namedview5"
     showgrid="false"
     inkscape:zoom="15.733333"
     inkscape:cx="19.205192"
     inkscape:cy="5.7947409"
     inkscape:window-x="-8"
     inkscape:window-y="-8"
     inkscape:window-maximized="1"
     inkscape:current-layer="Layer_1" /><path
     style="fill:#000000;fill-opacity:1;fill-rule:evenodd;stroke:none;stroke-width:0.38595414"
     d="M 3.25 0.69335938 L 3.25 2.2539062 L 5.6328125 2.2539062 L 5.6328125 5.5449219 L 2.3398438 5.5449219 L 2.3398438 2.8164062 L 0.77929688 2.8164062 L 0.77929688 7.1054688 L 7.1914062 7.1054688 L 7.1914062 0.69335938 L 3.25 0.69335938 z M 7.8671875 0.69335938 L 7.8671875 7.1054688 L 14.279297 7.1054688 L 14.279297 2.8164062 L 12.71875 2.8164062 L 12.71875 5.5449219 L 9.4257812 5.5449219 L 9.4257812 2.2539062 L 11.808594 2.2539062 L 11.808594 0.69335938 L 7.8671875 0.69335938 z M 0.77929688 7.78125 L 0.77929688 12.070312 L 2.3398438 12.070312 L 2.3398438 9.3398438 L 5.6328125 9.3398438 L 5.6328125 12.632812 L 3.25 12.632812 L 3.25 14.193359 L 7.1914062 14.193359 L 7.1914062 7.78125 L 0.77929688 7.78125 z M 7.8671875 7.78125 L 7.8671875 14.193359 L 11.808594 14.193359 L 11.808594 12.632812 L 9.4257812 12.632812 L 9.4257812 9.3398438 L 12.71875 9.3398438 L 12.71875 12.070312 L 14.279297 12.070312 L 14.279297 7.78125 L 7.8671875 7.78125 z "
     id="path3793" /></svg>

<svg width="15px" height="15px" enable-background="new 0 0 15 15" version="1.1" viewBox="0 0 15 15" xmlns="http://www.w3.org/2000/svg">
 <path d="m3.25 0.69336v1.5605h2.3828v3.291h-3.293v-2.7285h-1.5605v4.2891h6.4121v-6.4121h-3.9414zm4.6172 0v6.4121h6.4121v-4.2891h-1.5605v2.7285h-3.293v-3.291h2.3828v-1.5605h-3.9414zm-7.0879 7.0879v4.2891h1.5605v-2.7305h3.293v3.293h-2.3828v1.5605h3.9414v-6.4121h-6.4121zm7.0879 0v6.4121h3.9414v-1.5605h-2.3828v-3.293h3.293v2.7305h1.5605v-4.2891h-6.4121z" fill-rule="evenodd"/>
</svg>
